X:1
T:Deh lascia anima homai
T:Orlando Lasso
T:Deh lascia anima homai
C:Orlando Lasso
Z:Gabriele Fiamma
%%score [ 1 2 3 4 ]
L:1/8
Q:1/4=110
M:2/2
K:F
V:1 alto1 nm="Cantus" snm="C"
V:2 alto nm="Altus" snm="A"
V:3 tenor nm="Tenor" snm="T"
V:4 bass nm="Basso" snm="B"
V:1
 x8 | z2 z2 z2 x2 |[M:4/2][K:treble] z8 z4 B4 | G4 G6 ^F2 F4 | G4 E4 c4 =B2 c2 | %5
w: ||Deh|la- scia a- ni- ma ho-|ma- i, La- scia l'im-|
 A3 G F2 E2 GAG^FGA G2 | ^F4 ^c2 c2 c4 d4 | A2 B4 A2 B8 | z2 F2 A2 B2 c4 G4 | A4 c8 B4- | %10
w: pre- * * se va- * * * * * *|ne, E le vo- glie|mon- da- * ne,|Che t'han con- dot- ti in|tan- ti a- ma-|
 B4 A8 G4- | G2 ^FE F4 G4 z2 G2 | ^F2 G2 A2 B2 c4 c4- | c2 A2 G2 A2 B2 d2 c4 | %14
w: * ri gua-|* * * * i! A-|lhor can- tar po- tra- i,|* A- lhor can- tar po- tra-|
 F2 BA G2 GG ^F2 G2 BA G2 | F2 FE D2 F2 E2 c3 B/A/ B2 | A4 F2 G2 A8 | A4 z2 B4 A2 z2 G2 | %18
w: i, De la ve- ra spe- ran- za, De la ve-|ra, De la ve- ra spe- ran- * * *|za il pre- gio al- te-|ro; El- la non|
 c2 B4 G4 ^F2 z2 G2 | D2 F2 C2 _E4 D4 C2 | D8 z2 d4 B2 | F3 G A2 D2 D4 F4 | E4 D2 D2 G8 | %23
w: a- ma il can- to, Se|non scor- ge il cor san- *|to, La- scia il|tor- * * to, La- scia il|tor- to sen- tie-|
 A4 z2 F2 F3 F F2 _E2 | D4 z2 G2 G3 G G2 F2 | E2 E2 E2 F2 EF G3 ^F/E/ F2 | %26
w: ro, E po- scia a dir di|lei, E po- scia a dir di|lei vol- gi il pen- sie- * * * * *|
 G3 A B2 A2 ^F2 G3 F/E/ F2 | G8 E2 E2 E2 F2 | E4 ^F2 G2 F2 G3 F/E/ F2 | G4 D4 d6 d2 | G8 G8 | %31
w: ro, * * vol- gi il pen- * * *|sie- ro, vol- gi il pen-|sie- ro, vol- gi il pen- * * *|sie- ro, vol- gi il|pen- sie-|
 ^F16 |] %32
w: ro.|
V:2
 x8 | z2 z2 z2 x2 |[M:4/2][K:treble-8] z4 f4 d8 | _e6 d2 d8 | =B4 c4 e4 e2 g2 | f4 c4 d3 c d4 | %6
w: ||Deh la-|scia a- ni- ma ho-|ma- i, La- scia l'im-|pre- se va- * *|
 d4 e2 e2 e4 f2 d2 | f4 f4 z2 d2 f2 g2 | c4 f4 e8- | e4 c4 d8 | _e8 d8 | d8 z2 c2 =B2 c2 | %12
w: ne, E le vo- glie mon-|da- ne, Che t'han con-|dot- ti in tan-|* ti a- ma-|ri gua-|i! A- lhor can-|
 d2 _e2 d4 c2 f2 =e2 f2 | g2 f2 de f2 f4 z2 fe | d2 d2 _ed c2 d4 z2 ed | c2 d2 fe d2 c2 e2 g4 | %16
w: tar po- tra- i, A- lhor can-|tar po- tra- * * i, De la|ve- ra, De la ve- ra, De la|ve- ra, De la ve- ra spe- ran-|
 e2 f4 d2 e8 | ^f4 z2 g2 d2 =f2 c2 _e2- | e2 d4 c2 d8 | z2 d2 A2 c2 G4 G4 | B2 AG A4 G8 | %21
w: za il pre- gio al- te-|ro; El- la non a- ma il|* can- * to,|Se non scor- ge il cor|san- * * * to,|
 z2 d4 B2 F3 G A4 | A2 A2 f6 ed e4 | f4 c4 d3 c d2 c2 | =B4 d4 !courtesy!=e3 d e2 d2 | %25
w: La- scia il tor- * *|to sen- tie- * * *|ro, E po- scia a dir di|lei, E po- scia a dir di|
 ^c2 c2 c2 d2 c2 d2 z2 d2 | d2 _e2 d6 c2 z2 d2 | d2 _e2 d4 g2 G3 G d2 | ^c2 c2 z2 d2 d2 _e2 d4 | %29
w: lei vol- gi il pen- sie- ro, vol-|gi il pen- sie- ro, vol-|gi il pen- sie- ro, vol- gi il pen-|sie- ro, vol- gi il pen- sie-|
 =B8 z4 d4 | d4 _e4 d8 | d16 |] %32
w: ro, vol-|gi il pen- sie-|ro.|
V:3
 x8 | z2 z2 z2 x2 |[M:4/2][K:treble-8] d8 B8- | B4 B6 A2 A4 | d4 G4 A4 G2 G2 | %5
w: ||Deh la-|* scia a- ni- ma ho-|ma- i, La- scia l'im-|
 c3 B A2 c2 BABcBA B2 | A4 A2 A2 A6 B2 | d4 c4 B8 | z2 A2 c2 d2 G4 c4- | c4 F8 G4- | G4 c8 B4 | %11
w: pre- * * se va- * * * * * *|ne, E le vo- glie|mon- da- ne,|Che t'han con- dot- ti in|* tan- ti a-|* ma- ri|
 A8 G8 | z2 G2 ^F2 G2 A8 | z2 c2 =B2 c2 d2 _B2 A4 | B4 BA G2 A2 BA GA B2 | A2 A2 z2 BA G2 GG d3 d | %16
w: gua- i!|A- lhor can- tar,|A- lhor can- tar po- tra-|i, De la ve- ra, De la ve- ra spe-|ran- za, De la ve- ra spe- ran- za il|
 c2 c2 d6 ^c=B c4 | d8 z2 d2 A2 c2 | G4 G4 B2 A2 z2 B2- | B2 A2 z2 G2 c2 B4 G2- | %20
w: pre- gio al- te- * * *|ro; El- la non|a- ma il can- to, Se|* non scor- ge il cor san-|
 G2 ^FE F4 G4 z2 d2- | d2 B2 F3 G A2 B2 c2 d2- | d^c/=B/ c2 A3 B =c8- | c4 A4 B3 c B2 G2 | %24
w: * * * * to, La-|* scia il tor- * * to sen- tie-|* * * * ro, * *|* E po- scia a dir di|
 G4 =B4 c3 d c2 A2 | A4 A4 A2 B2 A4 | G6 ^F2 A2 G2 A4 | =B2 c3 B/A/ B2 c3 c c2 A2 | %28
w: lei, E po- scia a dir di|lei vol- gi il pen- sie-|ro, vol- gi il pen- sie-|ro, vol- * * * gi il pen- sie- ro,|
 z2 A2 A2 B2 A8 | G8 z4 =B4 | =B4 c4 _B8 | A16 |] %32
w: vol- gi il pen- sie-|ro, vol-|gi il pen- sie-|ro.|
V:4
 x8 | z2 z2 z2 x2 |[M:4/2] z8 G,8 | _E,4 G,6 D,2 D,4 | G,,4 C,4 A,,4 E,2 E,2 | %5
w: ||Deh|la- scia a- ni- ma ho-|ma- i, La- scia l'im-|
 F,6 A,2 G,^F,G,A,G,F, G,2 | D,4 A,,2 A,,2 A,,4 D,2 G,2 | F,4 F,4 z2 B,,2 D,2 _E,2 | F,6 D,2 C,8 | %9
w: pre- se va- * * * * * *|ne, E le vo- glie mon-|da- ne, Che t'han con-|dot- ti in tan-|
 A,,8 B,,8 | C,8 D,8- | D,8 !courtesy!=E,8 | z8 z4 z2 F,2 | E,2 F,2 G,2 F,2 B,,4 F,4 | %14
w: ti a- ma-|ri gua-|* i!|A-|lhor can- tar po- tra- i,|
 z2 G,F, _E,4 D,2 G,F, E,4 | F,2 D,C, B,,4 C,2 C,2 G,,2 G,2 | A,2 F,2 B,4 A,8 | %17
w: De la ve- ra, De la ve-|ra, De la ve- ra spe- ran- za il|pre- gio al- te- ro;|
 z4 G,6 D,2 F,2 C,2- | C,2 G,,2 _E,4 D,4 z2 G,2- | G,2 D,2 F,2 C,4 G,,2 _E,4 | D,8 z2 B,4 G,2 | %21
w: El- la non a-|* ma il can- to, Se|* non scor- ge il cor san-|to, La- scia il|
 D,4 D,2 D,4 B,,2 F,,3 G,, | A,,4 D,2 D,2 C,8 | F,4 F,4 B,,3 A,, B,,2 C,2 | %24
w: tor- to, La- scia il tor- *|* to sen- tie-|ro, E po- scia a dir di|
 G,,4 G,4 C,3 =B,, C,2 D,2 | A,,4 z2 D,2 A,,2 G,,2 D,3 C, | =B,,2 C,2 z2 D,2 D,2 _E,2 D,4 | %27
w: lei, E po- scia a dir di|lei vol- gi il pen- sie- *|* ro, vol- gi il pen- sie-|
 G,8 C,4 C,2 D,2 | A,,4 D,2 G,,2 D,2 C,2 D,4 | G,,8 z4 G,4- | G,2 G,2 C,4 G,8 | D,16 |] %32
w: ro, vol- gi il pen-|sie- ro, vol- gi il pen- sie-|ro, vol-|* gi il pen- sie-|ro.|

